Sources/DesignResourcesKit/DesignSystemImages.xcassets/Color/24px/Shield-Neutral-Alert-Color-24.imageset/Shield-Neutral-Alert-Color-24.svg

<svg width="24" height="24" viewBox="0 0 24 24" fill="none" xmlns="http://www.w3.org/2000/svg">
<path d="M14.7822 4.47949C14.7614 4.6501 14.75 4.82376 14.75 5C14.75 7.34721 16.6528 9.25 19 9.25C19.6242 9.25 20.2161 9.11374 20.75 8.87207V13.875L17 19.5L12 21.375L7 19.5L3.25 13.875V6.375L5.125 5.125H8.25L12 2.625L14.7822 4.47949Z" fill="url(#paint0_linear_9462_48280)"/>
<path d="M14.7822 4.47949C14.7614 4.6501 14.75 4.82376 14.75 5C14.75 7.34721 16.6528 9.25 19 9.25C19.6242 9.25 20.2161 9.11374 20.75 8.87207V13.875L17 19.5L13.25 20.75H12V2.625L14.7822 4.47949Z" fill="url(#paint1_linear_9462_48280)"/>
<path d="M9.64916 2.83431C11.0489 1.65779 13.1251 1.71762 14.4548 3.00032L14.6343 3.17349C14.8624 3.39352 14.9322 3.72606 14.8604 4.03469C14.7881 4.34494 14.7497 4.66825 14.7497 5.00031C14.7497 5.0078 14.7497 5.01529 14.7497 5.02277L13.5867 3.90071C12.6915 3.03708 11.278 3.02275 10.366 3.86848L9.04564 5.09309C8.35745 5.73124 7.38291 5.95875 6.48314 5.69172L5.96361 5.53742C4.6808 5.15683 3.38687 6.0991 3.35521 7.43682L3.28783 10.2923C3.19464 14.2314 5.42285 17.8585 8.97923 19.5549L10.9275 20.4836C11.6062 20.8073 12.3954 20.8085 13.0749 20.4866L15.0271 19.5618L15.3591 19.3967C18.7493 17.6342 20.8499 14.0825 20.741 10.2415L20.7019 8.89385C20.7432 8.87575 20.7842 8.85702 20.8249 8.83767C21.2938 8.6144 21.953 8.90425 21.9677 9.42339L21.99 10.2054C22.1127 14.5269 19.7497 18.5233 15.9353 20.5061L15.5622 20.6916L13.6101 21.6164C12.5908 22.0994 11.4075 22.0981 10.3894 21.6125L8.44115 20.6828C4.44031 18.7744 1.93308 14.6944 2.03783 10.263L2.10521 7.40753C2.15635 5.24658 4.24685 3.72436 6.31908 4.33918L6.83959 4.49348L7.01927 4.5345C7.44207 4.60152 7.87723 4.47173 8.19603 4.1761L9.51537 2.95247L9.64916 2.83431Z" fill="url(#paint2_linear_9462_48280)"/>
<path d="M22 5C22 6.65685 20.6569 8 19 8C17.3431 8 16 6.65685 16 5C16 3.34315 17.3431 2 19 2C20.6569 2 22 3.34315 22 5Z" fill="#EE1025"/>
<defs>
<linearGradient id="paint0_linear_9462_48280" x1="12.0054" y1="3.25" x2="12.1099" y2="21.3744" gradientUnits="userSpaceOnUse">
<stop stop-color="#F5F5F5"/>
<stop offset="1" stop-color="#DDDDDD"/>
</linearGradient>
<linearGradient id="paint1_linear_9462_48280" x1="16.375" y1="2.625" x2="16.375" y2="21.3542" gradientUnits="userSpaceOnUse">
<stop stop-color="#DDDDDD"/>
<stop offset="1" stop-color="#AAAAAA"/>
</linearGradient>
<linearGradient id="paint2_linear_9462_48280" x1="11.9994" y1="3.25039" x2="11.9994" y2="20.7504" gradientUnits="userSpaceOnUse">
<stop offset="0.00833332" stop-color="#AAAAAA"/>
<stop offset="1" stop-color="#666666"/>
</linearGradient>
</defs>
</svg>

<svg fill="none" viewBox="0 0 24 24" xmlns="http://www.w3.org/2000/svg">
  <path fill="url(#Shield-Neutral-Alert-Color-24_svg__a)" d="M14.782 4.48a4.25 4.25 0 0 0 5.968 4.393v5.002L17 19.5l-5 1.875L7 19.5l-3.75-5.625v-7.5l1.875-1.25H8.25l3.75-2.5 2.782 1.854Z"/>
  <path fill="url(#Shield-Neutral-Alert-Color-24_svg__b)" d="M14.782 4.48a4.25 4.25 0 0 0 5.968 4.393v5.002L17 19.5l-3.75 1.25H12V2.625l2.782 1.854Z"/>
  <path fill="url(#Shield-Neutral-Alert-Color-24_svg__c)" d="M9.65 2.834A3.594 3.594 0 0 1 14.454 3l.18.173c.227.22.297.553.225.862a4.25 4.25 0 0 0-.11.965v.023L13.587 3.9a2.343 2.343 0 0 0-3.221-.033l-1.32 1.225a2.657 2.657 0 0 1-2.563.599l-.52-.155a2.031 2.031 0 0 0-2.608 1.9l-.067 2.855a10 10 0 0 0 5.691 9.263l1.949.929a2.502 2.502 0 0 0 2.147.003l1.952-.925.332-.165a10 10 0 0 0 5.382-9.155l-.04-1.348.124-.056c.469-.224 1.128.066 1.143.585l.022.782a11.25 11.25 0 0 1-6.055 10.301l-.373.186-1.952.924a3.751 3.751 0 0 1-3.22-.003l-1.949-.93a11.25 11.25 0 0 1-6.403-10.42l.067-2.855A3.282 3.282 0 0 1 6.32 4.339l.52.154.18.042c.423.067.858-.063 1.177-.359l1.32-1.224.133-.118Z"/>
  <path fill="#EE1025" d="M22 5a3 3 0 1 1-6 0 3 3 0 0 1 6 0Z"/>
  <defs>
    <linearGradient id="Shield-Neutral-Alert-Color-24_svg__a" x1="12.005" x2="12.11" y1="3.25" y2="21.374" gradientUnits="userSpaceOnUse">
      <stop stop-color="#F5F5F5"/>
      <stop offset="1" stop-color="#DDD"/>
    </linearGradient>
    <linearGradient id="Shield-Neutral-Alert-Color-24_svg__b" x1="16.375" x2="16.375" y1="2.625" y2="21.354" gradientUnits="userSpaceOnUse">
      <stop stop-color="#DDD"/>
      <stop offset="1" stop-color="#AAA"/>
    </linearGradient>
    <linearGradient id="Shield-Neutral-Alert-Color-24_svg__c" x1="11.999" x2="11.999" y1="3.25" y2="20.75" gradientUnits="userSpaceOnUse">
      <stop offset=".008" stop-color="#CCC"/>
      <stop offset="1" stop-color="#888"/>
    </linearGradient>
  </defs>
</svg>
